X: 38704
T: Strawberry Tree, The
R: slide
M: 12/8
K: Dmajor
a|:a2 f d2 A g2 e c2 A|g2 e c2 A f2 d A2 a|
a2 f d2 A g2 e c2 A|1 g2 e f2 e d3 a2 b:|2 g2 e f2 e d3 d2 z||
|:G2 B BAG F2 A ded|c2 A e2 c d2 A f2 A|
G2 B BAG F2 A ded|1 c2 A f2 e d3 d2 z:|2 c2 A efe d3 .e.ed||
|:c2 A e2 c d2 A f2 d|c2 A e2 c d2 A f2 d|
G2 B BAG F2 A ded|1 c2 A efe d3 .e.ed:|2 c2 A f2 e d3 d2||

